app/dist/common/images/shanxi-taigang-st.svg

<svg height="18" viewBox="0 0 18 18" width="18" xmlns="http://www.w3.org/2000/svg"><path d="m0 0h18v18h-18z" fill="#f0f3fa"/><g fill="#da0000"><path d="m9 4c-2.95 0-5.07 1.9-5.6 3.26a5.6 5.6 0 0 1 4.67-2.19c2.76 0 5.26 1.67 5.26 4.2 0 3.82-4.44 4.82-6.66 4.37a8 8 0 0 0 2.43.36c3.7 0 5.9-2.68 5.9-5.04 0-2.35-2.32-4.96-6-4.96z"/><path d="m12.13 6.79a4.58 4.58 0 0 0 -2.46-.65c-1.9 0-4.34 1.07-4.34 3.47 0 2.07 2.18 2.98 3.84 2.96.24 0 .49-.02.74-.06 1.43-.24 2.6-1 3.16-2.01-.6 1.77-2.58 3.07-4.94 3.07-2.83 0-5.13-1.87-5.13-4.18 0-2.3 2.3-4.17 5.13-4.17 1.62 0 3.06.61 4 1.57z"/><path d="m12 7h-4.83l-.17 1h1.87l-.87 4h1.33l.88-4h1.62z"/></g></svg>

<!-- by TradingView --><svg width="18" height="18" viewBox="0 0 18 18" xmlns="http://www.w3.org/2000/svg"><path fill="#F0F3FA" d="M0 0h18v18H0z"/><path d="M9 4C6.05 4 3.93 5.9 3.4 7.26a5.6 5.6 0 0 1 4.67-2.19c2.76 0 5.26 1.67 5.26 4.2 0 3.82-4.44 4.82-6.66 4.37A8 8 0 0 0 9.1 14C12.8 14 15 11.32 15 8.96 15 6.61 12.68 4 9 4Z" fill="#DA0000"/><path d="M12.13 6.79a4.58 4.58 0 0 0-2.46-.65c-1.9 0-4.34 1.07-4.34 3.47 0 2.07 2.18 2.98 3.84 2.96.24 0 .49-.02.74-.06 1.43-.24 2.6-1 3.16-2.01-.6 1.77-2.58 3.07-4.94 3.07C5.3 13.57 3 11.7 3 9.39c0-2.3 2.3-4.17 5.13-4.17 1.62 0 3.06.61 4 1.57Z" fill="#DA0000"/><path d="M12 7H7.17L7 8h1.87L8 12h1.33l.88-4h1.62L12 7Z" fill="#DA0000"/></svg>
